X:1
T:Title
%%score { 1 | 2 }
L:1/8
M:3/4
K:G
V:1 treble nm="Grand Piano"
V:2 bass 
V:1
 z2 z2[Q:1/4=100] D2 | G>G G3 [FA] | [FA]>B B3 B | d>e d3 B | [GB]>[FA] [FA]3 D | G>G G3 [FA] | %6
 [FA]>B B3 B | d>e d3 B |[M:2/4] A>[B,G] [B,G]2 |[M:1/4] B2 |[M:3/4] [Fd]>[Fd] [Fd]3 [FA] | %11
 B>B B3 B | [FA]>[GB] [Ac]3 [FA] | B>B d3 B | [Ec]>[Ec] [Ec]3 A | B>B B3 B | d>e d3 B | %17
[M:2/4] [CFA]2 [B,G]2 |] %18
V:2
 z2 z2 [G,B,]2 | [G,B,D]>[G,B,D] [G,B,D]3 [D,D] | [D,D]>[K:treble][G,DG] [G,DG]3 [G,DG] | %3
 [G,B,G]>[G,CG] [G,B,G]3 [G,DG] | [D,D]>[D,D] [D,D]3 [F,C] | [G,B,D]>[G,B,D] [G,B,D]3 [D,D] | %6
 [D,D]>[K:treble][G,DG] [G,DG]3 [G,DG] | [G,B,G]>[G,CG] [G,B,G]3[K:bass] [G,D] | %8
[M:2/4] [D,F,C]>[G,,G,] [G,,G,]2 |[M:1/4] [G,D]2 |[M:3/4] [D,A,]>[D,A,] [D,A,]3 [D,D] | %11
 [G,DG]>[G,DG] [G,DG]3 [G,DG] | [D,D]>[D,D] [D,D]3 [D,D] | [G,DG]>[G,DG] [G,B,D]3 [G,=F] | %14
 [C,G,]>[C,G,] [C,G,]3 [D,F,D] | [G,D]>[K:treble][G,D] [G,D]3 [G,D] | %16
 [G,B,G]>[G,CG] [G,B,G]3 [G,DG] |[M:2/4][K:bass] D,2 G,,2 |] %18

